!!!COA: Josquin des Prez
!!!CDT: ~1450-1521/08/27
!!!COA2: Jacquet
!!!COA3: Verdelot
!!!ONB: Attributed to Verdelot by Boker-Heil, Lowinsky.
!!!OTL@@LAT: Salve regina
!!!AGN: Motet
!!!SCT: NJE 25.6
!!!SCA: New Josquin Edition 25.6
!!!voices: 6
**kern	**kern	**kern	**kern	**kern	**kern
*staff6	*staff5	*staff4	*staff3	*staff2	*staff1
*Ivox	*Ivox	*Ivox	*Ivox	*Ivox	*Ivox
*I"Bassus	*I"Sextus	*I"Quintus	*I"Tenor	*I"Altus	*I"Superius
*I'B	*I'Sx	*I'Q	*I'T	*I'A	*I'S
*>[A,B,C]	*>[A,B,C]	*>[A,B,C]	*>[A,B,C]	*>[A,B,C]	*>[A,B,C]
*>Part1[A]	*>Part1[A]	*>Part1[A]	*>Part1[A]	*>Part1[A]	*>Part1[A]
*>Part2[B]	*>Part2[B]	*>Part2[B]	*>Part2[B]	*>Part2[B]	*>Part2[B]
*>Part3[C]	*>Part3[C]	*>Part3[C]	*>Part3[C]	*>Part3[C]	*>Part3[C]
*>A	*>A	*>A	*>A	*>A	*>A
*clefF4	*clefF4	*clefGv2	*clefGv2	*clefG2	*clefG2
*k[b-]	*k[b-]	*k[b-]	*k[b-]	*k[b-]	*k[b-]
*M2/1	*M2/1	*M2/1	*M2/1	*M2/1	*M2/1
*met(C|)	*met(C|)	*met(C|)	*met(C|)	*met(C|)	*met(C|)
=1-	=1-	=1-	=1-	=1-	=1-
0r	0r	0d	0r	0r	0r
=2	=2	=2	=2	=2	=2
1r	0r	1c	0r	0r	0r
[1G	.	1d	.	.	.
=3	=3	=3	=3	=3	=3
1G]	0r	2G/	0r	0r	0r
.	.	1d	.	.	.
1F	.	.	.	.	.
.	.	2c\	.	.	.
=4	=4	=4	=4	=4	=4
0G	0r	2.B-\	0r	0r	0dd
.	.	4G/	.	.	.
.	.	2.g\	.	.	.
.	.	4f\	.	.	.
=5	=5	=5	=5	=5	=5
1C	0r	1e	1r	[0g	1cc
[1G	.	4d\	[1d	.	[1dd
.	.	4c\	.	.	.
.	.	4B-\	.	.	.
.	.	4A/	.	.	.
=6	=6	=6	=6	=6	=6
2G\]	0r	1G	1d]	0g]	1dd]
2F\	.	.	.	.	.
1E	.	2r	1c	.	1g
.	.	2G/	.	.	.
=7	=7	=7	=7	=7	=7
1D	1r	1A	0d	1f	1.dd
1r	[1G	2.B-\	.	[1g	.
.	.	.	.	.	2cc\
.	.	4c\	.	.	.
=8	=8	=8	=8	=8	=8
0r	1G]	2.d\	1G	1g]	1b-
.	.	4e\	.	.	.
.	1F	2f\	1r	1c	1a
.	.	[2c\	.	.	.
=9	=9	=9	=9	=9	=9
0r	0G	2c\]	0r	1.g	0dd
.	.	4B-\	.	.	.
.	.	4A/	.	.	.
.	.	1B-	.	.	.
.	.	.	.	2f/	.
=10	=10	=10	=10	=10	=10
0r	1C	1G	1r	1e	1cc
.	[1G	[1g	[1d	4d/	[1dd
.	.	.	.	4c/	.
.	.	.	.	4B-/	.
.	.	.	.	4A/	.
=11	=11	=11	=11	=11	=11
0r	2G\]	0g]	1d]	1G	1dd]
.	2F\	.	.	.	.
.	1E	.	1c	2r	1g
.	.	.	.	2G/	.
=12	=12	=12	=12	=12	=12
0r	0D	0f	0d	0A	0r
=13	=13	=13	=13	=13	=13
0G	0r	0g	2G/	2.B-/	1r
.	.	.	2.d\	.	.
.	.	.	.	4c/	.
.	.	.	.	2.d/	2r
.	.	.	4c\	.	.
.	.	.	2B-\	.	2g/
.	.	.	.	4e/	.
=14	=14	=14	=14	=14	=14
1F	1r	1c	1A	2f/	1a
.	.	.	.	1c	.
[1G	[1d	[1g	1G	.	[1b-
.	.	.	.	4B-/	.
.	.	.	.	4A/	.
=15	=15	=15	=15	=15	=15
1G]	1d]	2g\]	1r	1B-	2b-\]
.	.	2f\	.	.	4a/
.	.	.	.	.	4g/
1C	1c	1e	[1g	1G	1cc
=16	=16	=16	=16	=16	=16
1.G	1d	2d\	0g_	1r	1b-
.	.	2G/	.	.	.
.	[1G	1d	.	2r	1r
2F\	.	.	.	[2d/	.
=17	=17	=17	=17	=17	=17
1E	1G]	1e	1g]	2d/]	2r
.	.	.	.	2c/	2g/
1D	1r	2f\	1f	1d	1a
.	.	[2d\	.	.	.
=18	=18	=18	=18	=18	=18
0r	1r	4d\]	1g	1G	1.b-
.	.	4B-\	.	.	.
.	.	1d	.	.	.
.	2r	.	1G	1g	.
.	[2G\	4c\	.	.	4a/
.	.	4B-\	.	.	4g/
=19	=19	=19	=19	=19	=19
0r	2G\]	1A	1r	2e/	1cc
.	2F\	.	.	2f/	.
.	1G	1B-	2r	1d	2b-\
.	.	.	[2d\	.	[2g/
=20	=20	=20	=20	=20	=20
2r	1E	1G	2d\]	1r	4g/]
.	.	.	.	.	4f/
1G	.	.	2c\	.	4g/
.	.	.	.	.	4a/
.	1D	1r	1d	2r	2b-\
2F\	.	.	.	[2d/	2a/
=21	=21	=21	=21	=21	=21
2G\	1r	2r	1G	2d/]	2b-\
2E\	.	1g	.	2c/	2g/
1D	2r	.	1A	[1d	2r
.	2A\	2f\	.	.	2dd\
=22	=22	=22	=22	=22	=22
0r	2.B-\	2g\	1G	0d]	2.dd\
.	.	4G/	.	.	.
.	4A\	4A/	.	.	4cc\
.	2G\	4B-\	1r	.	2b-\
.	.	4c\	.	.	.
.	2F\	[2d\	.	.	2a/
=23	=23	=23	=23	=23	=23
0r	1E	2d\]	0r	1G	1g
.	.	2c\	.	.	.
.	[1D	1d	.	1A	2.f/
.	.	.	.	.	4g/
=24	=24	=24	=24	=24	=24
2r	1D]	1A	1F	2r	1a
2A\	.	.	.	2d/	.
2.B-\	1r	1r	1G	2.d/	1r
4A\	.	.	.	4c/	.
=25	=25	=25	=25	=25	=25
2G\	0r	1r	2B-\	2B-/	0r
2F\	.	.	2.c\	2A/	.
1E	.	2r	.	1G	.
.	.	.	4B-\	.	.
.	.	2e\	2c\	.	.
=26	=26	=26	=26	=26	=26
1D	0r	2.f\	1d	1A	2r
.	.	.	.	.	2a/
.	.	4e\	.	.	.
1r	.	2.d\	[1G	1r	2.b-\
.	.	4c\	.	.	4a/
=27	=27	=27	=27	=27	=27
0r	0r	4B-\	1G]	1r	2g/
.	.	4A/	.	.	.
.	.	1d	.	.	2f/
.	.	.	1A	2r	1e
.	.	2c\	.	2e/	.
=28	=28	=28	=28	=28	=28
0r	2r	2d\	0r	2.f/	2d/
.	2A\	2c\	.	.	2a/
.	.	.	.	4e/	.
.	2.B-\	[1d	.	2.d/	2f/
.	.	.	.	.	[2b-\
.	4A\	.	.	4c/	.
=29	=29	=29	=29	=29	=29
0r	2G\	1d]	1r	4B-/	2b-\]
.	.	.	.	4A/	.
.	2F\	.	.	1d	2a/
.	1E	1G	2r	.	1g
.	.	.	2e\	2c#i/	.
=30	=30	=30	=30	=30	=30
2r	1D	1A	2.f\	0d	0r
2A\	.	.	.	.	.
.	.	.	4e\	.	.
2.B-\	1G	1r	2.d\	.	.
4A\	.	.	4c\	.	.
=31	=31	=31	=31	=31	=31
2G\	1r	2r	2B-\	0r	0r
2F\	.	1d	2A/	.	.
1E	2r	.	1G	.	.
.	2G\	2c\	.	.	.
=32	=32	=32	=32	=32	=32
1D	2F\	1d	2r	0r	0r
.	2D\	.	1d	.	.
2r	1E	1G	.	.	.
2G\	.	.	2c\	.	.
=33	=33	=33	=33	=33	=33
2F\	1D	0r	1d	1r	0r
2D\	.	.	.	.	.
1E	1r	.	1G	2r	.
.	.	.	.	2g/	.
=34	=34	=34	=34	=34	=34
1D	0r	1r	2.A/	2f/	2r
.	.	.	.	2d/	1dd
.	.	.	4B-\	.	.
1r	.	2r	1c	1e	.
.	.	2g\	.	.	2cc\
=35	=35	=35	=35	=35	=35
0r	1r	2f\	0r	1d	1dd
.	.	2d\	.	.	.
.	1c	1e	.	2r	1g
.	.	.	.	[2g/	.
=36	=36	=36	=36	=36	=36
1.G	2B-\	1d	1r	4g/]	[0dd
.	.	.	.	4a/	.
.	1G	.	.	1b-	.
.	.	2r	[1d	.	.
2F\	2A\	2d\	.	2a/	.
=37	=37	=37	=37	=37	=37
1G	1B-	2B-\	1d]	2.g/	1dd]
.	.	2G/	.	.	.
.	.	.	.	4f/	.
[1C	[1G	2.g\	[1c	2.e/	1ee
.	.	4f\	.	8d/L	.
.	.	.	.	8c/J	.
=38	=38	=38	=38	=38	=38
0C]	0G_	0e	0c]	0g	0cc
=39	=39	=39	=39	=39	=39
2r	1G]	0d	1B-	2r	1dd
2G\	.	.	.	2G/	.
2F\	1D	.	1A	2A/	1dd
2D\	.	.	.	[2d/	.
=40	=40	=40	=40	=40	=40
1E	2r	2r	1G	2d/]	0r
.	2G\	2G/	.	2c#i/	.
1D	2F\	2A/	2r	1d	.
.	2D\	[2d\	2d\	.	.
=41	=41	=41	=41	=41	=41
0r	1E	2d\]	2B-\	1r	2r
.	.	2c\	2G/	.	2g/
.	1D	2d\	1A	2r	2f/
.	.	2A/	.	2f/	2d/
=42	=42	=42	=42	=42	=42
0C	0r	1.c	0G	0g	0e
.	.	2c\	.	.	.
=43	=43	=43	=43	=43	=43
1D	0r	[0A	0r	1.f	1d
[1F	.	.	.	.	1r
.	.	.	.	4e/	.
.	.	.	.	4d/	.
=44	=44	=44	=44	=44	=44
2F\]	1F	1A]	1r	2c/	0r
4E\	.	.	.	2d/	.
4D\	.	.	.	.	.
1C	1G	1r	1c	1e	.
=45	=45	=45	=45	=45	=45
1BB-	1.B-	0r	1d	1f	0r
[1D	.	.	[1f	[1d	.
.	4A\	.	.	.	.
.	4G\	.	.	.	.
=46	=46	=46	=46	=46	=46
1D]	1A	1r	2f\]	1d]	1f
.	.	.	4e\	.	.
.	.	.	4d\	.	.
1C	1r	1c	1e	1r	1g
=47	=47	=47	=47	=47	=47
1G	0r	1d	2d\	0r	1.b-
.	.	.	2B-\	.	.
[1F	.	2.f\	1c	.	.
.	.	.	.	.	4a/
.	.	4e\	.	.	4g/
=48	=48	=48	=48	=48	=48
1F]	2r	4f\	1A	1r	2a/
.	.	4g\	.	.	.
.	2F\	1a	.	.	1ff
1C	1G	.	1r	1c	.
.	.	2g\	.	.	2ee\
=49	=49	=49	=49	=49	=49
0r	1.B-	2.f\	0r	1d	2.dd\
.	.	4e\	.	.	4cc\
.	.	4d\	.	2f/	1b-
.	.	4c\	.	.	.
.	4A\	[2d\	.	2g/	.
.	4G\	.	.	.	.
=50	=50	=50	=50	=50	=50
1r	0A	2d\]	2r	1e	[0a
.	.	2c#i\	2e\	.	.
1D	.	1d	2.f\	2.d/	.
.	.	.	4e\	8c/L	.
.	.	.	.	8B-/J	.
=51	=51	=51	=51	=51	=51
1F	1D	1r	4d\	1A	1a]
.	.	.	4c\	.	.
.	.	.	1d	.	.
1E	1r	1G	.	2r	1r
.	.	.	2c#i\	2e/	.
=52	=52	=52	=52	=52	=52
0D	2r	1B-	1d	2.f/	0r
.	2D\	.	.	.	.
.	.	.	.	4e/	.
.	1F	1A	1r	4d/	.
.	.	.	.	4c/	.
.	.	.	.	[2d/	.
=53	=53	=53	=53	=53	=53
2r	1E	2G/	0r	2d/]	0r
2G\	.	2e\	.	2c#i/	.
1B-	[1D	2.f\	.	1d	.
.	.	4e\	.	.	.
=54	=54	=54	=54	=54	=54
1A	1D]	4d\	1r	0r	2r
.	.	4c\	.	.	.
.	.	1d	.	.	2a/
1G	2r	.	1G	.	2.b-\
.	[2G\	[2B-\	.	.	.
.	.	.	.	.	4a/
=55	=55	=55	=55	=55	=55
0r	1G]	2B-\]	1B-	1r	4g/
.	.	.	.	.	4f/
.	.	2G/	.	.	1g
.	1D	1d	1A	2r	.
.	.	.	.	2A/	2f#i/
=56	=56	=56	=56	=56	=56
2r	1G	2.d\	1G	2.B-/	1g
1G	.	.	.	.	.
.	.	4c\	.	4A/	.
.	1r	2B-\	1r	2B-/	1r
2F\	.	2A/	.	2c/	.
=57	=57	=57	=57	=57	=57
2.B-\	2r	1G	0r	2.d/	0r
.	1G	.	.	.	.
4A\	.	.	.	4c/	.
2B-\	.	1r	.	2B-/	.
2c\	2F\	.	.	2A/	.
=58	=58	=58	=58	=58	=58
2.d\	2.B-\	0r	2r	1G	0r
.	.	.	1G	.	.
4c\	4A\	.	.	.	.
2B-\	2B-\	.	.	1r	.
2A\	2c\	.	2F/	.	.
=59	=59	=59	=59	=59	=59
2.G\	2d\	0r	2.B-\	0r	0r
.	2.G\	.	.	.	.
4F\	.	.	4A/	.	.
1E-	.	.	2B-\	.	.
.	4F\	.	.	.	.
.	2G\	.	2c\	.	.
=60	=60	=60	=60	=60	=60
2D\	2A\	0r	2.d\	0r	0r
2.G\	1B-	.	.	.	.
.	.	.	4c\	.	.
.	.	.	2d\	.	.
4F\	.	.	.	.	.
2G\	2c\	.	2e\	.	.
=61	=61	=61	=61	=61	=61
2A\	1d	0r	2.f\	0r	0r
1B-	.	.	.	.	.
.	.	.	4e\	.	.
.	1c	.	4f\	.	.
.	.	.	4g\	.	.
2A\	.	.	2f\	.	.
=62	=62	=62	=62	=62	=62
2G\	2B-\	0r	4e\	0r	1r
.	.	.	4d\	.	.
2F\	1A	.	1d	.	.
1E	.	.	.	.	2r
.	2G\	.	2c#i\	.	[2g/
=63	=63	=63	=63	=63	=63
1D	1A	0r	1.d	1r	2g/]
.	.	.	.	.	2f/
1r	1G	.	.	2r	2.b-\
.	.	.	2c\	[2g/	.
.	.	.	.	.	4a/
=64	=64	=64	=64	=64	=64
0r	0r	1r	2B-\	2g/]	2b-\
.	.	.	2A/	2f/	2cc\
.	.	2r	1G	2.b-\	2.dd\
.	.	[2G/	.	.	.
.	.	.	.	4a/	4cc\
=65	=65	=65	=65	=65	=65
0r	0r	2G/]	0r	2b-\	2b-\
.	.	2F/	.	2cc\	2a/
.	.	2.B-\	.	2.dd\	2r
.	.	.	.	.	2f/
.	.	4c\	.	4cc\	.
=66	=66	=66	=66	=66	=66
0r	0r	2B-\	0r	2dd\	2g/
.	.	2c\	.	2ee\	2.a/
.	.	2.d\	.	2.ff\	.
.	.	.	.	.	4g/
.	.	.	.	.	2a/
.	.	4c\	.	4ee\	.
=67	=67	=67	=67	=67	=67
0r	0r	2d\	0r	2f/	2b-\
.	.	2e\	.	2g/	2.cc\
.	.	1f	.	2a/	.
.	.	.	.	.	4b-\
.	.	.	.	[2f/	2cc\
=68	=68	=68	=68	=68	=68
0r	0r	2.B-\	0r	4f/]	1.dd
.	.	.	.	4e/	.
.	.	.	.	2f/	.
.	.	4A/	.	.	.
.	.	2B-\	.	1g	.
.	.	2c\	.	.	[2ee\
=69	=69	=69	=69	=69	=69
0r	0r	2A/	1r	2a/	4ee\]
.	.	.	.	.	4dd\
.	.	2B-\	.	2d/	1dd
.	.	1c	2r	1e	.
.	.	.	[2g\	.	2cc#i\
=70	=70	=70	=70	=70	=70
0r	2r	1G	2g\]	1d	1dd
.	1d	.	2f\	.	.
.	.	1r	1e	2r	1r
.	2c\	.	.	[2g/	.
=71	=71	=71	=71	=71	=71
0r	1B-	2r	1d	2g/]	0r
.	.	1d	.	1f	.
.	1A	.	1r	.	.
.	.	2c\	.	[2e/	.
=72	=72	=72	=72	=72	=72
2r	1G	1.B-	0r	2e/]	0r
1G	.	.	.	2d/	.
.	1r	.	.	4e/	.
.	.	.	.	4d/	.
2F\	.	2A/	.	[2d/	.
=73	=73	=73	=73	=73	=73
1E	0r	1G	2r	2d/]	1r
.	.	.	1g	2c#i/	.
1D	.	1A	.	1d	2r
.	.	.	2f\	.	[2dd\
=74	=74	=74	=74	=74	=74
0r	1r	2r	1e	1A	2dd\]
.	.	2A/	.	.	2cc\
.	2r	1B-	[1d	2r	[1b-
.	[2G\	.	.	4G/	.
.	.	.	.	4A/	.
=75	=75	=75	=75	=75	=75
0r	2G\]	2G/	1d]	4B-/	2b-\]
.	.	.	.	4c/	.
.	2F\	2A/	.	1d	2a/
.	1E-	4B-\	1G	.	2.g/
.	.	4G/	.	.	.
.	.	[2g\	.	2c/	.
.	.	.	.	.	4a/
=76	=76	=76	=76	=76	=76
2r	1D	2g\]	0r	1d	2b-\
1d	.	2f\	.	.	2.a/
.	1r	1e	.	1A	.
.	.	.	.	.	4g/
2c\	.	.	.	.	2a/
=77	=77	=77	=77	=77	=77
1B-	2r	2.d\	0r	0r	2f/
.	1G	.	.	.	2g/
.	.	8c\L	.	.	.
.	.	8d\J	.	.	.
1A	.	4e\	.	.	1a
.	.	4d\	.	.	.
.	2F\	[2d\	.	.	.
=78	=78	=78	=78	=78	=78
0r	1E	2d\]	2r	2r	1r
.	.	2c#i\	2G/	1g	.
.	1D	1d	2A/	.	2r
.	.	.	2B-\	2f/	[2dd\
=79	=79	=79	=79	=79	=79
1r	0r	2r	2.c\	1e	2dd\]
.	.	1g	.	.	2cc\
.	.	.	4B-\	.	.
2r	.	.	1G	1d	1b-
[2d\	.	2f\	.	.	.
=80	=80	=80	=80	=80	=80
2d\]	0r	1e	1A	2r	1a
2c\	.	.	.	2e/	.
1B-	.	2d\	1r	2f/	2r
.	.	2G/	.	2d/	[2dd\
=81	=81	=81	=81	=81	=81
1A	0r	1c	1r	2e/	2dd\]
.	.	.	.	2f/	2cc\
2.G\	.	1d	2r	1g	1b-
.	.	.	2G/	.	.
4F\	.	.	.	.	.
=82	=82	=82	=82	=82	=82
2D\	2r	2r	2A/	2f/	2a/
2G\	1G	2d\	2B-\	2g/	2.g/
2C/	.	2e\	2.c\	2e/	.
.	.	.	.	.	8f/L
.	.	.	.	.	8g/J
2r	2F\	2f\	.	[2c/	[2a/
.	.	.	4B-\	.	.
=83	=83	=83	=83	=83	=83
2r	1E	2g\	1G	4c/]	4a/]
.	.	.	.	4d/	4g/
2C/	.	2c\	.	2e/	1g
2F\	1D	1d	1A	2f/	.
4G\	.	.	.	[2d/	2f#i/
4A\	.	.	.	.	.
=84	=84	=84	=84	=84	=84
1.B-	1r	2r	0G	4d/]	[0g
.	.	.	.	4c/	.
.	.	2G/	.	4B-/	.
.	.	.	.	4A/	.
.	2r	1B-	.	4G/	.
.	.	.	.	4A/	.
2G\	2G\	.	.	4B-/	.
.	.	.	.	4c/	.
=85	=85	=85	=85	=85	=85
0G	1B-	0r	2r	[0d	0g]
.	.	.	2G/	.	.
.	2r	.	1B-	.	.
.	2G\	.	.	.	.
=86	=86	=86	=86	=86	=86
0r	2.B-\	0r	2r	0d]	1r
.	.	.	2G/	.	.
.	4A\	.	.	.	.
.	2G\	.	2B-\	.	[1g
.	2F\	.	2B-\	.	.
=87	=87	=87	=87	=87	=87
0r	1E	0r	2c\	1G	1g]
.	.	.	2c\	.	.
.	1D	.	1d	1A	1f
=88	=88	=88	=88	=88	=88
0r	0r	2r	0r	1G	1b-
.	.	2d\	.	.	.
.	.	1f	.	2r	1cc
.	.	.	.	2F/	.
=89	=89	=89	=89	=89	=89
0r	0r	2r	0r	1.B-	1.dd
.	.	2d\	.	.	.
.	.	2f\	.	.	.
.	.	[2g\	.	2G/	[2ee\
=90	=90	=90	=90	=90	=90
0r	0r	4g\]	0r	2B-/	4ee\]
.	.	4f\	.	.	4dd\
.	.	4e\	.	2B-/	1dd
.	.	4d\	.	.	.
.	.	1e	.	1A	.
.	.	.	.	.	2cc#i\
=91	=91	=91	=91	=91	=91
2r	0r	0d	0r	1r	[0dd
2G\	.	.	.	.	.
1B-	.	.	.	2r	.
.	.	.	.	2G/	.
=92	=92	=92	=92	=92	=92
2r	0r	1r	0r	1B-	0dd]
2G\	.	.	.	.	.
2.B-\	.	[1d	.	2r	.
.	.	.	.	2G/	.
4A\	.	.	.	.	.
=93	=93	=93	=93	=93	=93
2G\	1r	1d]	0r	2B-/	0r
2F\	.	.	.	2B-/	.
1E	2r	1c	.	2c/	.
.	2G\	.	.	2c/	.
=94	=94	=94	=94	=94	=94
[0D	2B-\	2.f\	1r	1d	2r
.	2A\	.	.	.	2dd\
.	.	4g\	.	.	.
.	2A\	[1a	2r	2d/	1ff
.	2A\	.	2d\	2f/	.
=95	=95	=95	=95	=95	=95
0D]	1A	0a_	1f	2d/	2r
.	.	.	.	2.f/	2dd\
.	2r	.	2r	.	2.ff\
.	.	.	.	4g/	.
.	2A\	.	2d\	2a/	.
.	.	.	.	.	4ee\
=96	=96	=96	=96	=96	=96
1r	2D\	1a]	2f\	2r	2dd\
.	2A\	.	2e\	2e/	2cc\
2r	2D\	2r	2d\	2f/	2dd\
2A\	[2A\	[2a\	2c\	2e/	[2ee\
=97	=97	=97	=97	=97	=97
2D\	4A\]	2a\]	1d	2.f/	4ee\]
.	4G\	.	.	.	4dd\
2D\	4A\	2a\	.	.	1dd
.	4B-\	.	.	4g/	.
2A\	2c\	[1a	1e	2a/	.
2A\	[2A\	.	.	2e/	2cc#i\
=98	=98	=98	=98	=98	=98
1D	4A\]	1a]	1d	2.f/	0dd
.	4G\	.	.	.	.
.	4F\	.	.	.	.
.	4E\	.	.	4g/	.
2r	1D	1f	2r	1a	.
2D\	.	.	2d\	.	.
=99	=99	=99	=99	=99	=99
1E	1r	1r	2c\	0r	0r
.	.	.	2B-\	.	.
1F	1D	2r	1A	.	.
.	.	2d\	.	.	.
=100	=100	=100	=100	=100	=100
1G	1E	2c\	1G	0r	0r
.	.	2B-\	.	.	.
1D	1F	1A	2r	.	.
.	.	.	2d\	.	.
=101	=101	=101	=101	=101	=101
1E	1G	1G	2c\	0r	0r
.	.	.	2B-\	.	.
1F	1D	2r	1A	.	.
.	.	2d\	.	.	.
=102	=102	=102	=102	=102	=102
1G	1E	2c\	1G	2r	1g
.	.	2B-\	.	2g/	.
1r	1F	1A	1r	2f/	1a
.	.	.	.	2e/	.
=103	=103	=103	=103	=103	=103
0r	1G	2r	2r	1d	1b-
.	.	2g\	2G/	.	.
.	1r	2f\	1A	1c	1cc
.	.	2e\	.	.	.
=104	=104	=104	=104	=104	=104
0r	0r	1d	1B-	1f	1r
.	.	1c	1c	2e/	1g
.	.	.	.	2g/	.
=105	=105	=105	=105	=105	=105
0r	0r	1r	1r	2f/	1a
.	.	.	.	2e/	.
.	.	2r	1G	1d	1b-
.	.	2g\	.	.	.
=106	=106	=106	=106	=106	=106
1r	0r	2f\	1A	1c	1cc
.	.	2e\	.	.	.
2r	.	[1d	1B-	1r	1r
2G\	.	.	.	.	.
=107	=107	=107	=107	=107	=107
2F\	0r	2d\]	2A/	2r	0r
2E\	.	2c\	1G	2G/	.
1D	.	1f	.	2A/	.
.	.	.	2F/	2B-/	.
=108	=108	=108	=108	=108	=108
1C	2r	1e	1G	2.c/	0r
.	2G\	.	.	.	.
.	.	.	.	4B-/	.
2r	2F\	2d\	1r	2A/	.
2G\	2E\	2c\	.	[2G/	.
=109	=109	=109	=109	=109	=109
2A\	1D	1f	0r	2G/]	1r
2B-\	.	.	.	2F/	.
2.c\	1C	1e	.	2G/	1g
.	.	.	.	[2g/	.
4B-\	.	.	.	.	.
=110	=110	=110	=110	=110	=110
1A	0r	1c	1r	2g/]	1a
.	.	.	.	2f/	.
2G\	.	1d	2r	2g/	1b-
2B-\	.	.	2d\	[2f/	.
=111	=111	=111	=111	=111	=111
2F\	2r	0r	2c\	4f/]	2a/
.	.	.	.	4e/	.
2G\	2G\	.	2B-\	4d/	1g
.	.	.	.	4c/	.
1D	1A	.	1A	[1d	.
.	.	.	.	.	2f#i/
=112	=112	=112	=112	=112	=112
1G	2B-\	0d	0G	2d/]	[0g
.	2G\	.	.	2B-/	.
1r	2.B-\	.	.	2r	.
.	.	.	.	2G/	.
.	4A\	.	.	.	.
=113	=113	=113	=113	=113	=113
1r	2.G\	1d	0r	2B-/	0g]
.	.	.	.	2B-/	.
.	4F\	.	.	.	.
2r	1E	1c	.	2c/	.
2G\	.	.	.	2c/	.
=114	=114	=114	=114	=114	=114
1A	0D	1.f	0r	[0d	0r
2B-\	.	.	.	.	.
2A\	.	2f\	.	.	.
=115	=115	=115	=115	=115	=115
2.B-\	0r	2.g\	1r	1d]	1r
4A\	.	4f\	.	.	.
2.G\	.	4e\	2r	1B-	1g
.	.	4d\	.	.	.
.	.	[2d\	2d\	.	.
4F\	.	.	.	.	.
=116	=116	=116	=116	=116	=116
1E	0r	2d\]	1e	1G	1g
.	.	2c#i\	.	.	.
1D	.	1d	2f\	2A/	1f
.	.	.	2d\	2f/	.
=117	=117	=117	=117	=117	=117
0r	0r	0r	1.e-	1.g	2b-\
.	.	.	.	.	2b-\
.	.	.	.	.	2.cc\
.	.	.	2d\	2f/	.
.	.	.	.	.	4b-\
=118	=118	=118	=118	=118	=118
0r	0r	2r	2c\	2e/	4a/
.	.	.	.	.	4g/
.	.	2g\	2B-\	1d	1g
.	.	1a	1A	.	.
.	.	.	.	2c/	2f#i/
=119	=119	=119	=119	=119	=119
0r	0r	2b-\	[0G	0d	2g/
.	.	2g\	.	.	1b-
.	.	2.b-\	.	.	.
.	.	.	.	.	4g/
.	.	4a\	.	.	4a/
=120	=120	=120	=120	=120	=120
0r	2r	2.g\	1G]	0r	4b-\
.	.	.	.	.	4cc\
.	2G\	.	.	.	1dd
.	.	4f\	.	.	.
.	1A	1e	1r	.	.
.	.	.	.	.	2cc#i\
=121	=121	=121	=121	=121	=121
0r	2B-\	1d	0r	1r	[0dd
.	2G\	.	.	.	.
.	2.B-\	2r	.	2r	.
.	.	2d\	.	2G/	.
.	4A\	.	.	.	.
=122	=122	=122	=122	=122	=122
1r	2.G\	1d	0r	2B-/	1dd]
.	.	.	.	2B-/	.
.	4F\	.	.	.	.
2r	1E	1c	.	2c/	1r
2G\	.	.	.	2c/	.
=123	=123	=123	=123	=123	=123
1A	0D	1.f	0r	[0d	0r
2B-\	.	.	.	.	.
2A\	.	2f\	.	.	.
=124	=124	=124	=124	=124	=124
2.B-\	0r	2.g\	1r	1d]	1r
4A\	.	4f\	.	.	.
2.G\	.	4e\	2r	1B-	2r
.	.	4d\	.	.	.
.	.	[2d\	2d\	.	2g/
4F\	.	.	.	.	.
=125	=125	=125	=125	=125	=125
1E	0r	2d\]	1e	1G	1g
.	.	2c#i\	.	.	.
1D	.	1d	1f	2A/	1f
.	.	.	.	2f/	.
=126	=126	=126	=126	=126	=126
1r	1G	0r	1d	1.g	2b-\
.	.	.	.	.	2b-\
1G	1C	.	2.e\	.	2.cc\
.	.	.	.	2f/	.
.	.	.	4d\	.	4b-\
=127	=127	=127	=127	=127	=127
1C	1r	2r	2.c\	1e	4a/
.	.	.	.	.	4g/
.	.	2G/	.	.	1g
.	.	.	4B-\	.	.
1r	1D	2.A/	1A	1d	.
.	.	.	.	.	2f#i/
.	.	4B-\	.	.	.
=128	=128	=128	=128	=128	=128
0C	0E-	2.c\	[0Gl	2r	[0gl
.	.	.	.	2G/	.
.	.	4d\	.	.	.
.	.	2e-\	.	[1c	.
.	.	2c\	.	.	.
=129	=129	=129	=129	=129	=129
[0GGl	[0Dl	0d	0G_	2c/]	0g_
.	.	.	.	4B-/	.
.	.	.	.	4A/	.
.	.	.	.	2.B-/	.
.	.	.	.	4c/	.
=130	=130	=130	=130	=130	=130
0GG]	0D]	0B-l	0G]	0dl	0g]
!!LO:LB:i:g=z
=131||	=131||	=131||	=131||	=131||	=131||
*>B	*>B	*>B	*>B	*>B	*>B
*clefF4	*clefF4	*clefGv2	*clefGv2	*clefG2	*clefG2
*k[b-]	*k[b-]	*k[b-]	*k[b-]	*k[b-]	*k[b-]
*M2/1	*M2/1	*M2/1	*M2/1	*M2/1	*M2/1
*met(C|)	*met(C|)	*met(C|)	*met(C|)	*met(C|)	*met(C|)
!!!OMD: Secunda pars: Eja ergo
!!section: Secunda pars: Eja ergo
1r	0r	1B-	0r	0r	0r
1F	.	1c	.	.	.
=132	=132	=132	=132	=132	=132
1G	0r	1B-	0r	0r	0r
1F	.	2.A/	.	.	.
.	.	4B-\	.	.	.
=133	=133	=133	=133	=133	=133
2E\	0r	2c\	0r	0r	0r
2D\	.	1d	.	.	.
1E	.	.	.	.	.
.	.	2c#i\	.	.	.
=134	=134	=134	=134	=134	=134
[0D	0r	1d	0r	0r	0r
.	.	1r	.	.	.
=135	=135	=135	=135	=135	=135
0D]	0r	1f	0r	0r	0r
.	.	2c\	.	.	.
.	.	[2d\	.	.	.
=136	=136	=136	=136	=136	=136
1B-	0r	2d\]	0r	0r	0r
.	.	4c\	.	.	.
.	.	4B-\	.	.	.
2F\	.	2A/	.	.	.
[2G\	.	4G/	.	.	.
.	.	4A/	.	.	.
=137	=137	=137	=137	=137	=137
2G\]	0r	4B-\	0r	0r	0r
.	.	4c\	.	.	.
4F\	.	4d\	.	.	.
4E\	.	4e\	.	.	.
2D\	.	2f\	.	.	.
2C/	.	[2e\	.	.	.
=138	=138	=138	=138	=138	=138
2F\	0r	4e\]	0r	0r	0r
.	.	4d\	.	.	.
2G\	.	1d	.	.	.
1E	.	.	.	.	.
.	.	2c#i\	.	.	.
=139	=139	=139	=139	=139	=139
1D	0r	[0d	0r	0r	0r
2r	.	.	.	.	.
2G\	.	.	.	.	.
=140	=140	=140	=140	=140	=140
1G	0r	0d]	0r	0r	0r
2F\	.	.	.	.	.
[2G\	.	.	.	.	.
=141	=141	=141	=141	=141	=141
4G\]	0r	2r	0r	0r	0r
4F\	.	.	.	.	.
4E\	.	2g\	.	.	.
4D\	.	.	.	.	.
1E	.	1g	.	.	.
=142	=142	=142	=142	=142	=142
4D\	0r	2.f\	0r	0r	0r
4E\	.	.	.	.	.
4F\	.	.	.	.	.
4G\	.	4e\	.	.	.
2A\	.	2f\	.	.	.
2B-\	.	[2g\	.	.	.
=143	=143	=143	=143	=143	=143
2.c\	0r	4g\]	0r	0r	0r
.	.	4f\	.	.	.
.	.	4e\	.	.	.
4B-\	.	4d\	.	.	.
4A\	.	1e	.	.	.
4G\	.	.	.	.	.
2A\	.	.	.	.	.
=144	=144	=144	=144	=144	=144
2F\	0r	1d	0r	0r	0r
2.G\	.	.	.	.	.
.	.	1r	.	.	.
4F\	.	.	.	.	.
4E\	.	.	.	.	.
4D\	.	.	.	.	.
=145	=145	=145	=145	=145	=145
1E	0r	1g	0r	0r	0r
1D	.	1f	.	.	.
=146	=146	=146	=146	=146	=146
1r	0r	2e\	0r	0r	0r
.	.	1d	.	.	.
1G	.	.	.	.	.
.	.	4c\	.	.	.
.	.	4B-\	.	.	.
=147	=147	=147	=147	=147	=147
1F	0r	2.A/	0r	0r	0r
.	.	4B-\	.	.	.
2E\	.	2c\	.	.	.
2D\	.	[2d\	.	.	.
=148	=148	=148	=148	=148	=148
2E\	0r	4d\]	0r	0r	0r
.	.	4c\	.	.	.
2F\	.	1c	.	.	.
1D	.	.	.	.	.
.	.	2Bni\	.	.	.
=149	=149	=149	=149	=149	=149
[0C	0r	1c	0r	0r	0r
.	.	1r	.	.	.
=150	=150	=150	=150	=150	=150
1C]	0r	1G	0r	0r	0r
1r	.	1A	.	.	.
=151	=151	=151	=151	=151	=151
1G	0r	1B-	0r	0r	0r
1A	.	2A/	.	.	.
.	.	2F/	.	.	.
=152	=152	=152	=152	=152	=152
1B-	0r	1G	0r	0r	0r
2A\	.	2F/	.	.	.
2F\	.	2f\	.	.	.
=153	=153	=153	=153	=153	=153
2.G\	0r	2e\	0r	0r	0r
.	.	2.d\	.	.	.
4F\	.	.	.	.	.
4D\	.	.	.	.	.
4E\	.	4c\	.	.	.
4F\	.	4A/	.	.	.
4G\	.	4B-\	.	.	.
=154	=154	=154	=154	=154	=154
4A\	0r	4c\	0r	0r	0r
4B-\	.	4d\	.	.	.
2.c\	.	4e\	.	.	.
.	.	4f\	.	.	.
.	.	2g\	.	.	.
4B-\	.	.	.	.	.
4A\	.	[2a\	.	.	.
4G\	.	.	.	.	.
=155	=155	=155	=155	=155	=155
2F\	0r	4a\]	0r	0r	0r
.	.	4g\	.	.	.
2A\	.	1f	.	.	.
1G	.	.	.	.	.
.	.	2e\	.	.	.
=156	=156	=156	=156	=156	=156
[0F	0r	1f	0r	0r	0r
.	.	1r	.	.	.
=157	=157	=157	=157	=157	=157
1F]	0r	1c	0r	0r	0r
1r	.	1d	.	.	.
=158	=158	=158	=158	=158	=158
1F	0r	1f	0r	0r	0r
1G	.	2e\	.	.	.
.	.	[2d\	.	.	.
=159	=159	=159	=159	=159	=159
1.B-	0r	4d\]	0r	0r	0r
.	.	4c\	.	.	.
.	.	4B-\	.	.	.
.	.	4A/	.	.	.
.	.	2G/	.	.	.
2A\	.	2c\	.	.	.
=160	=160	=160	=160	=160	=160
2B-\	0r	2d\	0r	0r	0r
2c\	.	2e\	.	.	.
2d\	.	1f	.	.	.
2B-\	.	.	.	.	.
=161	=161	=161	=161	=161	=161
2B-\	0r	2g\	0r	0r	0r
2c\	.	2.a\	.	.	.
2.d\	.	.	.	.	.
.	.	4g\	.	.	.
.	.	4f\	.	.	.
4c\	.	4e\	.	.	.
=162	=162	=162	=162	=162	=162
4B-\	0r	4d\	0r	0r	0r
4A\	.	4c\	.	.	.
4G\	.	4B-\	.	.	.
4A\	.	4A/	.	.	.
4B-\	.	4G/	.	.	.
4c\	.	4A/	.	.	.
2d\	.	4B-\	.	.	.
.	.	4c\	.	.	.
=163	=163	=163	=163	=163	=163
2D\	0r	4d\	0r	0r	0r
.	.	4e\	.	.	.
2.d\	.	4f\	.	.	.
.	.	4g\	.	.	.
.	.	2a\	.	.	.
4c\	.	.	.	.	.
4B-\	.	[2b-\	.	.	.
4A\	.	.	.	.	.
=164	=164	=164	=164	=164	=164
4G\	0r	4b-\]	0r	0r	0r
4F\	.	4a\	.	.	.
2B-\	.	1g	.	.	.
1A	.	.	.	.	.
.	.	2f#i\	.	.	.
=165	=165	=165	=165	=165	=165
0Gl	0rl	0gl	0r	0r	0r
!!LO:LB:i:g=z
=166||	=166||	=166||	=166||	=166||	=166||
*>C	*>C	*>C	*>C	*>C	*>C
*clefF4	*clefF4	*clefGv2	*clefGv2	*clefG2	*clefG2
*k[b-]	*k[b-]	*k[b-]	*k[b-]	*k[b-]	*k[b-]
*M2/1	*M2/1	*M2/1	*M2/1	*M2/1	*M2/1
*met(C|)	*met(C|)	*met(C|)	*met(C|)	*met(C|)	*met(C|)
!!!OMD: Tertia pars: Et Jseum
!!section: Tertia pars: Et Jseum
0r	1r	0r	0r	0g	0r
.	[1G	.	.	.	.
=167	=167	=167	=167	=167	=167
0r	1G]	0r	0r	1d	0dd
.	1D	.	.	[1f	.
=168	=168	=168	=168	=168	=168
0r	1.F	0r	0r	2f/]	1a
.	.	.	.	4e/	.
.	.	.	.	4d/	.
.	.	.	.	2.c/	[1cc
.	4E\	.	.	.	.
.	4D\	.	.	4d/	.
=169	=169	=169	=169	=169	=169
1r	2C/	0r	0g	1e	1cc]
.	2c\	.	.	.	.
[1G	2B-\	.	.	1d	[1dd
.	2G\	.	.	.	.
=170	=170	=170	=170	=170	=170
1G]	1B-	0d	1d	0r	0dd]
1D	1A	.	[1f	.	.
=171	=171	=171	=171	=171	=171
1.F	0r	1A	0f]	0r	0r
.	.	[1c	.	.	.
4E\	.	.	.	.	.
4D\	.	.	.	.	.
=172	=172	=172	=172	=172	=172
0C	0c	2c\]	2.g\	1r	0r
.	.	4B-\	.	.	.
.	.	4A/	4f\	.	.
.	.	1G	1e	[1g	.
=173	=173	=173	=173	=173	=173
1r	1G	0g	1d	1g]	0r
[1G	[1B-	.	2r	1d	.
.	.	.	[2d\	.	.
=174	=174	=174	=174	=174	=174
1G]	1B-]	1d	2d\]	1g	0dd
.	.	.	2G/	.	.
1D	[1A	[1f	1d	2.a/	.
.	.	.	.	4g/	.
=175	=175	=175	=175	=175	=175
2.F\	2A\]	2f\]	1.c	1f	1a
.	2F\	4c\	.	.	.
8E\L	.	4d\	.	.	.
8D\J	.	.	.	.	.
1C	1G	4e\	.	1e	[1cc
.	.	4f\	.	.	.
.	.	2g\	2G/	.	.
=176	=176	=176	=176	=176	=176
1r	[0F	2c\	1A	1f	1cc]
.	.	1f	.	.	.
[1BB-	.	.	[1B-	2.d/	[1dd
.	.	[2d\	.	.	.
.	.	.	.	4e/	.
=177	=177	=177	=177	=177	=177
1BB-]	0F]	4d\]	1B-]	2f/	1dd]
.	.	4e\	.	.	.
.	.	2f\	.	4F/	.
.	.	.	.	4G/	.
1F	.	4F/	2A/	4A/	[1cc
.	.	4G/	.	4B-/	.
.	.	4A/	2F/	4c/	.
.	.	4B-\	.	4d/	.
=178	=178	=178	=178	=178	=178
0C	0r	[0c	0G	2e/	2cc\]
.	.	.	.	1f	2cc\
.	.	.	.	.	1cc
.	.	.	.	2e/	.
=179	=179	=179	=179	=179	=179
0F	1r	1c]	1F	0f	0a
.	1c	1A	1r	.	.
=180	=180	=180	=180	=180	=180
1r	1B-	1G	2r	1d	0r
.	.	.	2d\	.	.
1c	1A	1r	2e\	1r	.
.	.	.	2f\	.	.
=181	=181	=181	=181	=181	=181
1B-	1G	2r	1g	0r	1r
.	.	2d\	.	.	.
1A	1r	2e\	1r	.	1cc
.	.	2f\	.	.	.
=182	=182	=182	=182	=182	=182
1G	2r	1g	1r	2r	1b-
.	2G\	.	.	2g/	.
1r	2A\	1r	1c	2e/	1a
.	2F\	.	.	2f/	.
=183	=183	=183	=183	=183	=183
2r	1G	2r	1B-	1d	1g
2G\	.	2g\	.	.	.
2A\	1r	2e\	1A	1r	1cc
2F\	.	2f\	.	.	.
=184	=184	=184	=184	=184	=184
1G	2r	1d	1G	2r	1b-
.	2G\	.	.	2g/	.
1r	2A\	1r	1c	2e/	1a
.	2F\	.	.	2f/	.
=185	=185	=185	=185	=185	=185
1r	1G	2r	1B-	1d	1g
.	.	2g\	.	.	.
2r	1D	2a\	1A	2r	1r
2D\	.	2f\	.	2d/	.
=186	=186	=186	=186	=186	=186
2E-\	1r	1g	1G	2B-/	2r
2C/	.	.	.	2c/	2g/
1F	2r	2r	1r	1A	2a/
.	2D\	2d\	.	.	2f/
=187	=187	=187	=187	=187	=187
1E-i	2E-\	2B-\	2r	1r	1g
.	2C/	2c\	2G/	.	.
1D	1F	1A	2A/	2r	2f/
.	.	.	2F/	2d/	[2a/
=188	=188	=188	=188	=188	=188
0r	1E-i	0r	1G	2e-/	4a/]
.	.	.	.	.	4g/
.	.	.	.	2c/	1g
.	1D	.	1A	1d	.
.	.	.	.	.	2f#i/
=189	=189	=189	=189	=189	=189
1r	0r	2r	1G	1B-	0g
.	.	2G/	.	.	.
2r	.	2.d\	1r	2G/	.
2G\	.	.	.	[2g/	.
.	.	4c\	.	.	.
=190	=190	=190	=190	=190	=190
2.d\	2r	2B-\	1r	2g/]	0r
.	2D\	2A/	.	2f/	.
4c\	.	.	.	.	.
2.B-\	2.d\	1G	2r	1g	.
.	.	.	2G/	.	.
4A\	4c\	.	.	.	.
=191	=191	=191	=191	=191	=191
2G\	2B-\	0r	2.d\	0r	0r
2F\	2A\	.	.	.	.
.	.	.	8c\L	.	.
.	.	.	8d\J	.	.
2B-\	2G\	.	4e\	.	.
.	.	.	4d\	.	.
[2A\	2F\	.	[2d\	.	.
=192	=192	=192	=192	=192	=192
4A\]	1E	2r	2d\]	0r	1r
4G\	.	.	.	.	.
1G	.	2G/	2c\	.	.
.	1D	1A	[1d	.	2r
2F#i\	.	.	.	.	2d/
=193	=193	=193	=193	=193	=193
0G	0r	1.B-	1d]	2r	2.dd\
.	.	.	.	2G/	.
.	.	.	.	.	4cc\
.	.	.	1r	2.d/	2.b-\
.	.	[2G/	.	.	.
.	.	.	.	8c/L	4a/
.	.	.	.	8d/J	.
=194	=194	=194	=194	=194	=194
0r	0r	4G/]	0r	4e/	2g/
.	.	4A/	.	4d/	.
.	.	2B-\	.	1d	2f/
.	.	2G/	.	.	1e
.	.	2A/	.	2c#i/	.
=195	=195	=195	=195	=195	=195
1G	2r	2.B-\	2r	1d	1d
.	2B-\	.	2.d\	.	.
.	.	4c\	.	.	.
2F\	2A\	2d\	.	1r	1r
.	.	.	4c\	.	.
2E\	[2G\	2e\	[2c\	.	.
=196	=196	=196	=196	=196	=196
1D	2G\]	2.f\	2c\]	1r	0r
.	2F\	.	2Bni\	.	.
.	.	4d\	.	.	.
1C	[1G	1e	1c	[1g	.
=197	=197	=197	=197	=197	=197
0r	1G]	2d\	0r	1g]	2r
.	.	1B-	.	.	2.dd\
.	1r	.	.	2f/	.
.	.	.	.	.	4cc\
.	.	2c\	.	2e/	[2cc\
=198	=198	=198	=198	=198	=198
0r	1r	1G	2r	1d	2cc\]
.	.	.	2G/	.	2bni\
.	2r	1r	1A	2c/	1cc
.	2F\	.	.	2f/	.
=199	=199	=199	=199	=199	=199
1r	2G\	2r	1B-	2d/	2r
.	2E\	2.g\	.	2e/	2g/
2r	1F	.	2A/	1c	2.a/
.	.	4f\	.	.	.
2F\	.	2f\	2F/	.	.
.	.	.	.	.	4b-\
=200	=200	=200	=200	=200	=200
2G\	1C	2e\	1c	2r	1cc
2E\	.	2.g\	.	2G/	.
1F	1r	.	2F/	2.A/	1a
.	.	4f\	.	.	.
.	.	[2f\	2A/	.	.
.	.	.	.	4B-/	.
=201	=201	=201	=201	=201	=201
1C	2r	2f\]	1G	1c	1r
.	2G\	2e\	.	.	.
1r	2A\	1f	1F	2r	2r
.	2F\	.	.	2c/	2a/
=202	=202	=202	=202	=202	=202
2r	1G	1d	1r	2B-/	1b-
2G\	.	.	.	2G/	.
2A\	1D	2r	2r	[1d	1a
2F\	.	2d\	2A/	.	.
=203	=203	=203	=203	=203	=203
1G	1r	2B-\	1B-	2d/]	2g/
.	.	2G/	.	1g	2.dd\
1D	2r	[1d	1A	.	.
.	.	.	.	.	4cc\
.	2D\	.	.	2f/	4b-\
.	.	.	.	.	4a/
=204	=204	=204	=204	=204	=204
1r	2.G\	2d\]	1G	1g	2.b-\
.	.	1g	.	.	.
.	4F\	.	.	.	4a/
2r	2G\	.	[1d	1r	2b-\
2D\	2A\	2f\	.	.	2a/
=205	=205	=205	=205	=205	=205
2.G\	2.B-\	1g	0d]	0r	0r
4F\	4A\	.	.	.	.
2G\	2G\	1r	.	.	.
2A\	2F\	.	.	.	.
=206	=206	=206	=206	=206	=206
1.B-	2G\	0r	2r	1r	0r
.	2D\	.	1d	.	.
.	1E	.	.	2r	.
4A\	.	.	2c\	2G/	.
4G\	.	.	.	.	.
=207	=207	=207	=207	=207	=207
1A	1D	1r	2.f\	2.d/	[0a
.	.	.	4e\	4c/	.
1r	1r	2r	2d\	2d/	.
.	.	2A/	2c\	2e/	.
=208	=208	=208	=208	=208	=208
0r	0r	2.d\	2d\	2.f/	0a]
.	.	.	2A/	.	.
.	.	4c\	.	4e/	.
.	.	2d\	1r	2d/	.
.	.	2e\	.	2c/	.
=209	=209	=209	=209	=209	=209
1r	0r	1.f	0r	2d/	2r
.	.	.	.	2A/	1a
2r	.	.	.	1B-	.
[2d\	.	4e\	.	.	2g/
.	.	4d\	.	.	.
=210	=210	=210	=210	=210	=210
2d\]	1r	1e	1r	1A	0a
2c\	.	.	.	.	.
2d\	2r	1d	1f	1r	.
2D\	[2d\	.	.	.	.
=211	=211	=211	=211	=211	=211
1E	2d\]	1G	1g	0r	0r
.	2c\	.	.	.	.
2D\	2d\	1r	2.f\	.	.
[2d\	2D\	.	.	.	.
.	.	.	8e\L	.	.
.	.	.	8d\J	.	.
=212	=212	=212	=212	=212	=212
2d\]	1E	0r	1g	0r	0r
2c\	.	.	.	.	.
2d\	2D\	.	2f\	.	.
[2B-\	[2G\	.	4e\	.	.
.	.	.	4d\	.	.
=213	=213	=213	=213	=213	=213
4B-\]	4G\]	0r	4e\	1r	0r
4A\	4F\	.	4d\	.	.
4G\	4E\	.	1d	.	.
4F\	4D\	.	.	.	.
1G	1E	.	.	2r	.
.	.	.	2c#i\	[2g/	.
=214	=214	=214	=214	=214	=214
1A	1D	1r	0d	2g/]	1r
.	.	.	.	2f/	.
1G	1r	2r	.	2g/	1b-
.	.	[2g\	.	2G/	.
=215	=215	=215	=215	=215	=215
0r	0r	2g\]	0r	1A	1cc
.	.	2f\	.	.	.
.	.	2g\	.	2G/	2.b-\
.	.	2G/	.	[2g/	.
.	.	.	.	.	8a/L
.	.	.	.	.	8g/J
=216	=216	=216	=216	=216	=216
0r	0r	1A	0r	2g/]	1cc
.	.	.	.	2f/	.
.	.	2G/	.	2g/	2b-\
.	.	[2c\	.	[2e/	4a/
.	.	.	.	.	4g/
=217	=217	=217	=217	=217	=217
1r	0r	4c\]	0r	4e/]	4a/
.	.	4B-\	.	4d/	4g/
.	.	4A/	.	4c/	1g
.	.	4G/	.	4B-/	.
2r	.	1A	.	2c/	.
2D\	.	.	.	[2d/	2f#i/
=218	=218	=218	=218	=218	=218
2.G\	1r	2G/	[0d	4d/]	1g
.	.	.	.	4c/	.
.	.	1g	.	4B-/	.
4F\	.	.	.	4A/	.
2G\	2r	.	.	2B-/	1r
2A\	2D\	2f\	.	2A/	.
=219	=219	=219	=219	=219	=219
2.B-\	2.G\	1g	0d]	2G/	0r
.	.	.	.	1B-	.
4A\	4F\	.	.	.	.
2G\	2G\	1r	.	.	.
2F\	2A\	.	.	2A/	.
=220	=220	=220	=220	=220	=220
2G\	1.B-	1r	2r	0r	0r
2D\	.	.	1d	.	.
1E	.	2r	.	.	.
.	4A\	2G/	2c\	.	.
.	4G\	.	.	.	.
=221	=221	=221	=221	=221	=221
1D	1A	2.d\	2.f\	1r	[0a
.	.	4c\	4e\	.	.
1r	1r	2d\	2d\	2r	.
.	.	2e\	2c\	2A/	.
=222	=222	=222	=222	=222	=222
0r	0r	2.f\	2d\	2.d/	0a]
.	.	.	2A/	.	.
.	.	4e\	.	4c/	.
.	.	2d\	1r	2d/	.
.	.	2c\	.	2e/	.
=223	=223	=223	=223	=223	=223
0r	1r	2d\	0r	1.f	2r
.	.	2A/	.	.	1a
.	2r	1B-	.	.	.
.	[2d\	.	.	4e/	2g/
.	.	.	.	4d/	.
=224	=224	=224	=224	=224	=224
1r	2d\]	1A	1r	1e	0a
.	2c\	.	.	.	.
2r	2d\	1r	1f	1d	.
[2d\	2D\	.	.	.	.
=225	=225	=225	=225	=225	=225
2d\]	1E	0r	1g	1G	0r
2c\	.	.	.	.	.
2d\	2D\	.	2.f\	1r	.
2D\	[2d\	.	.	.	.
.	.	.	8e\L	.	.
.	.	.	8d\J	.	.
=226	=226	=226	=226	=226	=226
1E	2d\]	0r	1g	0r	0r
.	2c\	.	.	.	.
2D\	2d\	.	2f\	.	.
[2G\	[2B-\	.	4e\	.	.
.	.	.	4d\	.	.
=227	=227	=227	=227	=227	=227
4G\]	4B-\]	1r	4e\	0r	0r
4F\	4A\	.	4d\	.	.
4E\	4G\	.	1d	.	.
4D\	4F\	.	.	.	.
1E	1G	2r	.	.	.
.	.	[2g\	2c#i\	.	.
=228	=228	=228	=228	=228	=228
1D	1A	2g\]	0d	1r	1r
.	.	2f\	.	.	.
1r	1G	2g\	.	2r	1b-
.	.	2G/	.	[2g/	.
=229	=229	=229	=229	=229	=229
0r	0r	1A	0r	2g/]	1cc
.	.	.	.	2f/	.
.	.	2G/	.	2g/	2.b-\
.	.	[2g\	.	2G/	.
.	.	.	.	.	8a/L
.	.	.	.	.	8g/J
=230	=230	=230	=230	=230	=230
0r	0r	2g\]	0r	1A	1cc
.	.	2f\	.	.	.
.	.	2g\	.	2G/	2b-\
.	.	[2e\	.	[2c/	4a/
.	.	.	.	.	4g/
=231	=231	=231	=231	=231	=231
0r	0r	4e\]	0r	4c/]	4a/
.	.	4d\	.	4B-/	4g/
.	.	4c\	.	4A/	1g
.	.	4B-\	.	4G/	.
.	.	1A	.	1A	.
.	.	.	.	.	2f#i/
=232	=232	=232	=232	=232	=232
1r	1r	1.B-	0r	1G	0g
[1G	2r	.	.	1r	.
.	[2G\	[2b-\	.	.	.
=233	=233	=233	=233	=233	=233
2G\]	2G\]	2b-\]	0d	2r	0dd
2F\	2A\	2a\	.	2d/	.
1G	1B-	2.g\	.	2B-/	.
.	.	.	.	2G/	.
.	.	4f\	.	.	.
=234	=234	=234	=234	=234	=234
0C	[0G	2e-i\	0c	2.g/	2.ee-i\
.	.	2c\	.	.	.
.	.	.	.	4f/	4dd\
.	.	[1g	.	1e	1cc
=235	=235	=235	=235	=235	=235
2r	1G]	1g]	[0d	2d/	2.b-\
1G	.	.	.	2G/	.
.	.	.	.	.	4cc\
.	2r	2r	.	2.B-/	2.dd\
4F\	2G\	[2g\	.	.	.
4E\	.	.	.	4c/	4ee\
=236	=236	=236	=236	=236	=236
1D	2.A\	2g\]	1d]	1d	1ff
.	.	2f\	.	.	.
.	4B-\	.	.	.	.
1C	1c	2g\	2.G/	1e	[1ee
.	.	2g\	.	.	.
.	.	.	4A/	.	.
=237	=237	=237	=237	=237	=237
0BB-	0F	2.d\	0B-	2.f/	1ee]
.	.	4e\	.	4e/	.
.	.	1f	.	2d/	[1dd
.	.	.	.	2B-/	.
=238	=238	=238	=238	=238	=238
1F	0r	2c\	2A/	1c	1dd]
.	.	1f	2F/	.	.
1C	.	.	1G	2r	[1cc
.	.	2e\	.	[2c/	.
=239	=239	=239	=239	=239	=239
0r	2r	[0f	0F	2c/]	0cc_
.	1c	.	.	1A	.
.	[2A\	.	.	4G/	.
.	.	.	.	4F/	.
=240	=240	=240	=240	=240	=240
2r	2A\]	1f]	1c	1F	0cc]
1c	4G\	.	.	.	.
.	4F\	.	.	.	.
.	1F	2r	1r	[1f	.
[2A\	.	[2c\	.	.	.
=241	=241	=241	=241	=241	=241
2A\]	1r	2c\]	1c	0f_	2r
4G\	.	1A	.	.	1cc
4F\	.	.	.	.	.
1F	2r	.	1c	.	.
.	[2F\	4G/	.	.	[2a/
.	.	4F/	.	.	.
=242	=242	=242	=242	=242	=242
2D\	2F\]	1F	[0d	1f]	2a/]
1F	1D	.	.	.	4g/
.	.	.	.	.	4f/
.	.	1r	.	2r	1f
[2D\	4C/	.	.	[2f/	.
.	4BB-/	.	.	.	.
=243	=243	=243	=243	=243	=243
2D\]	1BB-	2r	0d]	2f/]	1r
4C/	.	1f	.	1d	.
4BB-/	.	.	.	.	.
[1BB-	[1F	.	.	.	2r
.	.	[2d\	.	4c/	[2ff\
.	.	.	.	4B-/	.
=244	=244	=244	=244	=244	=244
0BB-]	0F_	2d\]	1r	1B-	2ff\]
.	.	4c\	.	.	1dd
.	.	4B-\	.	.	.
.	.	1B-	2r	[1f	.
.	.	.	[2d\	.	4cc\
.	.	.	.	.	4b-\
=245	=245	=245	=245	=245	=245
2r	1F]	2r	2d\]	1f]	1a
1F	.	4F/	2c\	.	.
.	.	4G/	.	.	.
.	2r	4A/	2d\	1r	1r
.	.	4B-\	.	.	.
2E\	[2G\	[2c\	2e\	.	.
=246	=246	=246	=246	=246	=246
1D	2G\]	2c\]	1f	0r	0r
.	2F\	2B-\	.	.	.
1C	2G\	1c	1e	.	.
.	2A\	.	.	.	.
=247	=247	=247	=247	=247	=247
1B-	1B-	1G	2d\	2r	2r
.	.	.	2G/	1d	1g
1r	1A	1r	2c\	.	.
.	.	.	2A/	2c/	2f/
=248	=248	=248	=248	=248	=248
2r	2.G\	1r	1B-	2d/	1g
1G	.	.	.	2e/	.
.	4F\	.	.	.	.
.	1D	2r	1A	1f	1a
2F\	.	[2d\	.	.	.
=249	=249	=249	=249	=249	=249
2G\	1r	2d\]	0r	1e	2b-\
2A\	.	2c\	.	.	1a
1B-	2r	1d	.	2d/	.
.	2G\	.	.	[2d/	2g/
=250	=250	=250	=250	=250	=250
1A	2c\	1e	0r	2d/]	0a
.	1A	.	.	2c/	.
1D	.	2.f\	.	1d	.
.	2F\	.	.	.	.
.	.	4e\	.	.	.
=251	=251	=251	=251	=251	=251
1B-	1G	2d\	2r	1.d	0r
.	.	4B-\	1G	.	.
.	.	4c\	.	.	.
1A	1D	4d\	.	.	.
.	.	4e\	.	.	.
.	.	2f\	2F/	2d/	.
=252	=252	=252	=252	=252	=252
2.G\	1B-	2r	1G	1d	2r
.	.	4B-\	.	.	1g
4F\	.	4c\	.	.	.
1D	1A	4d\	1A	[1d	.
.	.	4e\	.	.	.
.	.	2f\	.	.	2f/
=253	=253	=253	=253	=253	=253
1r	2.G\	2d\	1B-	0d]	1g
.	.	1g	.	.	.
.	4F\	.	.	.	.
2r	1D	.	1A	.	1a
2D\	.	2f#i\	.	.	.
=254	=254	=254	=254	=254	=254
2.G\	0r	1g	[0Gl	2r	1.b-
.	.	.	.	2d/	.
4F\	.	.	.	.	.
2.E\	.	2r	.	2.g/	.
.	.	2G/	.	.	2g/
4D\	.	.	.	4f/	.
=255	=255	=255	=255	=255	=255
2C/	2r	2.g\	0G_	2e/	[0gl
2BB-/	2F\	.	.	2d/	.
.	.	4f\	.	.	.
[1C	2.G\	2.e\	.	2c/	.
.	.	.	.	2G/	.
.	4F\	4d\	.	.	.
=256	=256	=256	=256	=256	=256
0C]	2E-\	2c\	0G_	0c	0g_
.	2C/	2.e-i\	.	.	.
.	1E-i	.	.	.	.
.	.	4d\	.	.	.
.	.	[2c\	.	.	.
=257	=257	=257	=257	=257	=257
[0GGl	[0Dl	2c\]	0G_	0d	0g_
.	.	4B-\	.	.	.
.	.	4A/	.	.	.
.	.	2.B-\	.	.	.
.	.	4c\	.	.	.
=258	=258	=258	=258	=258	=258
0GG]	0D]	0dl	0G]	0B-l	0g]
==	==	==	==	==	==
*-	*-	*-	*-	*-	*-
!!!RDF**kern: l=long note in original notation
!!!RDF**kern: i=editorial accidental
!!!ENC:	Will Watson 13/09/2011
!!!END:	2011/09/13/
!!!EED:	Jesse Rodin
!!!EEV: 2012/04/24/
!!attribution-level@Jos: 5 (doubtful)
!!!ONB:	Translated from MusicXML and edited on 2011/10/17/ by Craig Sapp
!!muse2ps: C^@{COA}?\n@{SCT}^I150v95,95,95,95,95,130i2I150c85Q16
